packages/astro-components-stencil/src/icons/filter-hdr.svg

<svg width="24" height="24" viewBox="0 0 24 24" fill="none" xmlns="http://www.w3.org/2000/svg">
<path d="M13.2 7.07004L10.25 11L12.5 14C12.83 14.44 12.74 15.07 12.3 15.4C11.86 15.73 11.23 15.65 10.9 15.2C9.84999 13.8 8.58999 12.13 7.79999 11.06C7.39999 10.53 6.59999 10.53 6.19999 11.06L2.19999 16.39C1.70999 17.06 2.17999 18 2.99999 18H21C21.82 18 22.29 17.06 21.8 16.4L14.8 7.07004C14.4 6.53004 13.6 6.53004 13.2 7.07004Z" fill="black"/>
</svg>

<svg xmlns="http://www.w3.org/2000/svg" viewBox="0 0 24 24"><g xmlns="http://www.w3.org/2000/svg" id="filter-hdr" fill-rule="nonzero">
            <path d="M13.2 7.07L10.25 11l2.25 3c.33.44.24 1.07-.2 1.4a.994.994 0 01-1.4-.2c-1.05-1.4-2.31-3.07-3.1-4.14-.4-.53-1.2-.53-1.6 0l-4 5.33c-.49.67-.02 1.61.8 1.61h18c.82 0 1.29-.94.8-1.6l-7-9.33a.993.993 0 00-1.6 0z"/>
        </g></svg>
